COLOR/action 16/16/draw-ellipse.svg

<svg viewBox="0 0 24 24" xmlns="http://www.w3.org/2000/svg"><g stroke-width="1.375" transform="matrix(.81818182 0 0 1.0909091 2.181818 -1.909091)"><path d="m12.000001 4.4999998c-6.0751332 0-11.000001 3.6936514-11.000001 8.2500002 0 4.556348 4.9248678 8.25 11.000001 8.25 6.075131 0 10.999999-3.693652 10.999999-8.25 0-4.5563488-4.924868-8.2500002-10.999999-8.2500002z" fill="#f76363"/><path d="m12 3c-4.9705635 0-9 4.0294376-9 9 0 .084442.0113612.166117.0136719.25.1337051-4.8538114 4.1002063-8.75 8.9863281-8.75 4.88612 0 8.852623 3.8961886 8.986328 8.75.002311-.083883.013672-.165558.013672-.25 0-4.9705624-4.029438-9-9-9z" fill="#fff" opacity=".3" stroke-width="1.299038" transform="matrix(1.2222222 0 0 .91666666 -2.666667 1.75)"/><path d="m12 21c6.075132 0 10.999999-3.693651 10.999999-8.25 0-.07741-.01388-.152274-.01671-.229166-.163417 4.449327-5.011363 8.020833-10.983289 8.020833-5.9719246 0-10.8198727-3.571506-10.9832899-8.020833-.00282.076892-.0167103.151761-.0167103.229166 0 4.556349 4.9248686 8.25 11.0000002 8.25z" opacity=".2" stroke-width="1.375"/></g></svg>

<?xml version="1.0" encoding="UTF-8" standalone="no"?>
<svg
   xmlns:dc="http://purl.org/dc/elements/1.1/"
   xmlns:cc="http://creativecommons.org/ns#"
   xmlns:rdf="http://www.w3.org/1999/02/22-rdf-syntax-ns#"
   xmlns:svg="http://www.w3.org/2000/svg"
   xmlns="http://www.w3.org/2000/svg"
   xmlns:xlink="http://www.w3.org/1999/xlink"
   xmlns:sodipodi="http://sodipodi.sourceforge.net/DTD/sodipodi-0.dtd"
   xmlns:inkscape="http://www.inkscape.org/namespaces/inkscape"
   viewBox="0 0 24 24"
   version="1.1"
   id="svg10"
   sodipodi:docname="draw-ellipse.svg"
   inkscape:version="0.92.4 (5da689c313, 2019-01-14)">
  <metadata
     id="metadata16">
    <rdf:RDF>
      <cc:Work
         rdf:about="">
        <dc:format>image/svg+xml</dc:format>
        <dc:type
           rdf:resource="http://purl.org/dc/dcmitype/StillImage" />
      </cc:Work>
    </rdf:RDF>
  </metadata>
  <defs
     id="defs14">
    <linearGradient
       id="linearGradient5704">
      <stop
         style="stop-color:#5a5a5a;stop-opacity:1"
         offset="0"
         id="stop5706" />
      <stop
         style="stop-color:#000000;stop-opacity:1"
         offset="1.0000000"
         id="stop5708" />
    </linearGradient>
    <linearGradient
       xlink:href="#linearGradient5899"
       y2="172.62581"
       x2="129.23041"
       y1="154.33151"
       x1="113.17024"
       gradientUnits="userSpaceOnUse"
       id="linearGradient5907"
       inkscape:collect="always"
       gradientTransform="matrix(0.707159,0,0,0.70714,376.08207,43.01413)" />
    <linearGradient
       id="linearGradient5899">
      <stop
         style="stop-color:#ffffff;stop-opacity:1"
         offset="0"
         id="stop5901" />
      <stop
         style="stop-color:#ffacb5;stop-opacity:1"
         offset="1"
         id="stop5903" />
    </linearGradient>
    <linearGradient
       xlink:href="#linearGradient5899"
       gradientUnits="userSpaceOnUse"
       y2="180.11198"
       x2="137.9319"
       y1="156.459"
       x1="115.92701"
       id="linearGradient5915"
       inkscape:collect="always"
       gradientTransform="matrix(0.707159,0,0,0.70714,376.08207,43.01413)" />
  </defs>
  <sodipodi:namedview
     pagecolor="#ffffff"
     bordercolor="#666666"
     borderopacity="1"
     objecttolerance="10"
     gridtolerance="10"
     guidetolerance="10"
     inkscape:pageopacity="0"
     inkscape:pageshadow="2"
     inkscape:window-width="1920"
     inkscape:window-height="1016"
     id="namedview12"
     showgrid="false"
     inkscape:zoom="32.257369"
     inkscape:cx="-0.080454532"
     inkscape:cy="11.992851"
     inkscape:window-x="0"
     inkscape:window-y="27"
     inkscape:window-maximized="1"
     inkscape:current-layer="g8" />
  <g
     id="g8"
     transform="matrix(0.81818182,0,0,1.0909091,2.1818182,-1.9090911)"
     style="stroke-width:1.375">
    <path
       d="M 12.000001,4.4999998 C 5.9248678,4.4999998 1,8.1936512 1,12.75 1,17.306348 5.9248678,21 12.000001,21 18.075132,21 23,17.306348 23,12.75 23,8.1936512 18.075132,4.4999998 12.000001,4.4999998 Z"
       id="path2"
       inkscape:connector-curvature="0"
       style="fill:#f76363;fill-opacity:1" />
    <path
       style="fill:#ffffff;stroke-width:1.29903817;fill-opacity:1;opacity:0.3"
       d="M 12 3 C 7.0294365 3 3 7.0294376 3 12 C 3 12.084442 3.0113612 12.166117 3.0136719 12.25 C 3.147377 7.3961886 7.1138782 3.5 12 3.5 C 16.88612 3.5 20.852623 7.3961886 20.986328 12.25 C 20.988639 12.166117 21 12.084442 21 12 C 21 7.0294376 16.970562 3 12 3 z "
       transform="matrix(1.2222222,0,0,0.91666666,-2.6666667,1.7500002)"
       id="path823" />
    <path
       id="path828"
       d="m 12,21 c 6.075132,0 10.999999,-3.693651 10.999999,-8.25 0,-0.07741 -0.01388,-0.152274 -0.01671,-0.229166 C 22.819872,16.970161 17.971926,20.541667 12,20.541667 6.0280754,20.541667 1.1801273,16.970161 1.0167101,12.520834 1.0138901,12.597726 0.9999998,12.672595 0.9999998,12.75 0.9999998,17.306349 5.9248684,21 12,21 Z"
       style="opacity:0.2;fill:#000000;fill-opacity:1;stroke-width:1.375"
       inkscape:connector-curvature="0" />
  </g>
</svg>
